modules/feathericon/icons/calendar.svg

<svg width="24" height="24" viewBox="0 0 24 24" xmlns="http://www.w3.org/2000/svg"><path d="M8 4h8V2h2v2h1a2 2 0 0 1 2 2v14a2 2 0 0 1-2 2H5a2 2 0 0 1-2-2V6a2 2 0 0 1 2-2h1V2h2v2zM5 8v12h14V8H5zm2 3h2v2H7v-2zm4 0h2v2h-2v-2zm4 0h2v2h-2v-2zm0 4h2v2h-2v-2zm-4 0h2v2h-2v-2zm-4 0h2v2H7v-2z" fill="#000" fill-rule="evenodd"/></svg>

<?xml version="1.0" encoding="UTF-8"?>
<svg width="24px" height="24px" viewBox="0 0 24 24" version="1.1" xmlns="http://www.w3.org/2000/svg" xmlns:xlink="http://www.w3.org/1999/xlink">
    <!-- Generator: sketchtool 52.2 (67145) - http://www.bohemiancoding.com/sketch -->
    <title>calendar</title>
    <desc>Created with sketchtool.</desc>
    <g id="web-app" stroke="none" stroke-width="1" fill="none" fill-rule="evenodd">
        <g id="calendar" fill="#000000">
            <path d="M8,4 L16,4 L16,2 L18,2 L18,4 L19,4 C20.1045695,4 21,4.8954305 21,6 L21,20 C21,21.1045695 20.1045695,22 19,22 L5,22 C3.8954305,22 3,21.1045695 3,20 L3,6 C3,4.8954305 3.8954305,4 5,4 L6,4 L6,2 L8,2 L8,4 Z M5,8 L5,20 L19,20 L19,8 L5,8 Z M7,11 L9,11 L9,13 L7,13 L7,11 Z M11,11 L13,11 L13,13 L11,13 L11,11 Z M15,11 L17,11 L17,13 L15,13 L15,11 Z M15,15 L17,15 L17,17 L15,17 L15,15 Z M11,15 L13,15 L13,17 L11,17 L11,15 Z M7,15 L9,15 L9,17 L7,17 L7,15 Z" id="Shape"></path>
        </g>
    </g>
</svg>
